; generated by Slic3r 0.9.10b on 2014-01-23 at 19:31:04
; layer_height = 0.28
; perimeters = 1
; top_solid_layers = 3
; bottom_solid_layers = 3
; fill_density = 0.4
; perimeter_speed = 30
; infill_speed = 60
; travel_speed = 130
; nozzle_diameter = 0.35
; filament_diameter = 3
; extrusion_multiplier = 1
; perimeters extrusion width = 0.37mm
; infill extrusion width = 0.37mm
; solid infill extrusion width = 0.37mm
; top infill extrusion width = 0.37mm
; first layer extrusion width = 0.67mm
G21 ; set units to millimeters
M107
M104 S220 ; set temperature
G28 ; home all axes
G1 Z5 F5000 ; lift nozzle
M109 S220 ; wait for temperature to be reached
G90 ; use absolute coordinates
G92 E0
M82 ; use absolute distances for extrusion
G1 F1800.000 E-12.00000
G92 E0
G1 Z0.336 F7800.000
G1 X86.257 Y85.597
G1 F1800.000 E12.00000
G1 X90.507 Y81.907 F540.000 E12.16130
G1 X91.237 Y81.357 E12.18749
G1 X95.957 Y78.287 E12.34886
G1 X96.757 Y77.847 E12.37502
G1 X101.847 Y75.467 E12.53605
G1 X102.697 Y75.137 E12.56218
G1 X108.077 Y73.477 E12.72354
G1 X108.987 Y73.267 E12.75030
G1 X114.547 Y72.377 E12.91167
G1 X115.447 Y72.297 E12.93756
G1 X121.077 Y72.187 E13.09894
G1 X122.387 Y72.287 E13.13659
G1 X123.647 Y72.647 E13.17415
G1 X124.807 Y73.257 E13.21171
G1 X125.827 Y74.077 E13.24921
G1 X126.667 Y75.077 E13.28664
G1 X127.297 Y76.227 E13.32422
G1 X127.677 Y77.487 E13.36194
G1 X127.807 Y78.787 E13.39938
G1 X127.807 Y121.207 E14.61506
G1 X127.687 Y122.497 E14.65219
G1 X127.307 Y123.737 E14.68936
G1 X126.697 Y124.877 E14.72641
G1 X125.877 Y125.877 E14.76347
G1 X124.877 Y126.697 E14.80054
G1 X123.737 Y127.307 E14.83759
G1 X122.497 Y127.687 E14.87476
G1 X121.207 Y127.807 E14.91189
G1 X78.787 Y127.807 E16.12757
G1 X77.487 Y127.677 E16.16501
G1 X76.227 Y127.297 E16.20273
G1 X75.077 Y126.667 E16.24031
G1 X74.077 Y125.827 E16.27774
G1 X73.257 Y124.807 E16.31524
G1 X72.647 Y123.647 E16.35280
G1 X72.287 Y122.387 E16.39036
G1 X72.187 Y121.077 E16.42801
G1 X72.297 Y115.457 E16.58910
G1 X72.377 Y114.547 E16.61528
G1 X73.267 Y108.987 E16.77665
G1 X73.477 Y108.077 E16.80341
G1 X75.137 Y102.697 E16.96477
G1 X75.467 Y101.847 E16.99090
G1 X77.847 Y96.757 E17.15193
G1 X78.287 Y95.957 E17.17809
G1 X81.357 Y91.237 E17.33945
G1 X81.907 Y90.507 E17.36565
G1 X85.597 Y86.257 E17.52695
G1 X86.193 Y85.661 E17.55111
G1 F1800.000 E5.55111
G92 E0
G1 X112.701 Y88.491 F7800.000
G1 F1800.000 E12.00000
G1 X118.459 Y88.491 F540.000 E12.16503
G1 X118.459 Y111.509 E12.82471
G1 X112.701 Y111.509 E12.98975
G1 X112.701 Y88.581 E13.64683
G1 X113.304 Y89.094 F7800.000
G1 X117.856 Y89.094 F378.000 E13.77731
G1 X117.856 Y110.906 E14.40243
G1 X113.304 Y110.906 E14.53291
G1 X113.304 Y89.184 E15.15544
G1 X108.362 Y92.140 F7800.000
G1 X109.974 Y94.241 F540.000 E15.23136
G1 X111.125 Y97.019 E15.31752
G1 X111.517 Y100.000 E15.40368
G1 X111.125 Y102.981 E15.48985
G1 X110.988 Y103.311 E15.50009
G1 X109.974 Y105.759 E15.57601
G1 X108.144 Y108.144 E15.66217
G1 X105.759 Y109.974 E15.74834
G1 X103.311 Y110.988 E15.82425
G1 X102.981 Y111.125 E15.83450
G1 X100.000 Y111.517 E15.92066
G1 X97.019 Y111.125 E16.00683
G1 X94.572 Y110.111 E16.08274
G1 X94.241 Y109.974 E16.09299
G1 X91.856 Y108.144 E16.17916
G1 X90.026 Y105.759 E16.26532
G1 X88.875 Y102.981 E16.35148
G1 X88.483 Y100.000 E16.43765
G1 X88.875 Y97.019 E16.52381
G1 X90.026 Y94.241 E16.60997
G1 X91.856 Y91.856 E16.69614
G1 X94.241 Y90.026 E16.78230
G1 X97.019 Y88.875 E16.86846
G1 X100.000 Y88.483 E16.95463
G1 X102.981 Y88.875 E17.04079
G1 X105.759 Y90.026 E17.12695
G1 X108.144 Y91.856 E17.21312
G1 X108.306 Y92.068 E17.22077
G1 X107.883 Y92.507 F7800.000
G1 X109.448 Y94.545 F378.000 E17.29441
G1 X110.537 Y97.177 E17.37603
G1 X110.909 Y100.000 E17.45764
G1 X110.537 Y102.823 E17.53926
G1 X110.431 Y103.080 E17.54723
G1 X109.448 Y105.455 E17.62087
G1 X107.714 Y107.714 E17.70249
G1 X105.455 Y109.448 E17.78410
G1 X103.080 Y110.431 E17.85774
G1 X102.823 Y110.537 E17.86571
G1 X100.000 Y110.909 E17.94733
G1 X97.177 Y110.537 E18.02894
G1 X94.545 Y109.448 E18.11056
G1 X92.286 Y107.714 E18.19217
G1 X90.552 Y105.455 E18.27378
G1 X89.463 Y102.823 E18.35540
G1 X89.091 Y100.000 E18.43701
G1 X89.463 Y97.177 E18.51863
G1 X90.552 Y94.545 E18.60024
G1 X92.286 Y92.286 E18.68186
G1 X94.545 Y90.552 E18.76347
G1 X97.177 Y89.463 E18.84508
G1 X100.000 Y89.091 E18.92670
G1 X102.823 Y89.463 E19.00831
G1 X105.455 Y90.552 E19.08993
G1 X107.714 Y92.286 E19.17154
G1 X107.828 Y92.435 E19.17692
G1 F1800.000 E7.17692
G92 E0
G1 X111.509 Y112.701 F7800.000
G1 F1800.000 E12.00000
G1 X111.509 Y118.459 F540.000 E12.16503
G1 X88.491 Y118.459 E12.82471
G1 X88.491 Y112.701 E12.98975
G1 X111.419 Y112.701 E13.64683
G1 X110.906 Y113.304 F7800.000
G1 X110.906 Y117.856 F378.000 E13.77731
G1 X89.094 Y117.856 E14.40243
G1 X89.094 Y113.304 E14.53291
G1 X110.816 Y113.304 E15.15544
G1 X120.309 Y120.309 F7800.000
G1 X79.710 Y120.309 F540.000 E16.31894
G1 X79.804 Y115.669 E16.45194
G1 X80.678 Y110.238 E16.60959
G1 X82.296 Y104.980 E16.76723
G1 X84.627 Y99.998 E16.92488
G1 X87.627 Y95.387 E17.08252
G1 X91.236 Y91.236 E17.24016
G1 X95.387 Y87.627 E17.39781
G1 X95.741 Y87.397 E17.40990
G1 X99.998 Y84.627 E17.55545
G1 X104.980 Y82.296 E17.71310
G1 X110.238 Y80.678 E17.87074
G1 X115.669 Y79.804 E18.02838
G1 X120.309 Y79.710 E18.16138
G1 X120.309 Y120.218 E19.32230
G1 X120.912 Y120.912 F7800.000
G1 X79.094 Y120.912 F378.000 E20.52071
G1 X79.202 Y115.615 E20.67255
G1 X80.089 Y110.101 E20.83260
G1 X81.732 Y104.763 E20.99265
G1 X84.099 Y99.705 E21.15270
G1 X87.144 Y95.023 E21.31275
G1 X90.809 Y90.809 E21.47280
G1 X95.023 Y87.144 E21.63286
G1 X99.705 Y84.099 E21.79291
G1 X104.763 Y81.732 E21.95296
G1 X110.101 Y80.089 E22.11301
G1 X115.615 Y79.202 E22.27306
G1 X120.912 Y79.094 E22.42490
G1 X120.912 Y120.821 E23.62072
G1 X111.946 Y112.803 F7800.000
G1 X119.015 Y119.872 F1080.000 E23.90871
G1 X118.158 Y119.872 E23.93341
G1 X111.946 Y113.661 E24.18648
G1 X111.946 Y114.518 E24.21117
G1 X117.300 Y119.872 E24.42932
G1 X116.443 Y119.872 E24.45401
G1 X111.946 Y115.375 E24.63724
G1 X111.946 Y116.232 E24.66193
G1 X115.586 Y119.872 E24.81023
G1 X114.729 Y119.872 E24.83493
G1 X111.946 Y117.089 E24.94831
G1 X111.946 Y117.946 E24.97300
G1 X113.872 Y119.872 E25.05146
G1 X113.015 Y119.872 E25.07615
G1 X111.946 Y118.803 E25.11968
G1 X111.182 Y118.896 E25.14186
G1 X112.158 Y119.872 E25.18161
G1 X111.300 Y119.872 E25.20630
G1 X110.325 Y118.896 E25.24605
G1 X109.468 Y118.896 E25.27075
G1 X110.443 Y119.872 E25.31049
G1 X109.586 Y119.872 E25.33519
G1 X108.611 Y118.896 E25.37493
G1 X107.753 Y118.896 E25.39963
G1 X108.729 Y119.872 E25.43938
G1 X107.872 Y119.872 E25.46407
G1 X106.896 Y118.896 E25.50382
G1 X106.039 Y118.896 E25.52851
G1 X107.015 Y119.872 E25.56826
G1 X106.158 Y119.872 E25.59295
G1 X105.182 Y118.896 E25.63270
G1 X104.325 Y118.896 E25.65740
G1 X105.300 Y119.872 E25.69714
G1 X104.443 Y119.872 E25.72184
G1 X103.468 Y118.896 E25.76158
G1 X102.611 Y118.896 E25.78628
G1 X103.586 Y119.872 E25.82603
G1 X102.729 Y119.872 E25.85072
G1 X101.753 Y118.896 E25.89047
G1 X100.896 Y118.896 E25.91516
G1 X101.872 Y119.872 E25.95491
G1 X101.015 Y119.872 E25.97960
G1 X100.039 Y118.896 E26.01935
G1 X99.182 Y118.896 E26.04405
G1 X100.158 Y119.872 E26.08379
G1 X99.300 Y119.872 E26.10849
G1 X98.325 Y118.896 E26.14823
G1 X97.468 Y118.896 E26.17293
G1 X98.443 Y119.872 E26.21268
G1 X97.586 Y119.872 E26.23737
G1 X96.611 Y118.896 E26.27712
G1 X95.753 Y118.896 E26.30181
G1 X96.729 Y119.872 E26.34156
G1 X95.872 Y119.872 E26.36625
G1 X94.896 Y118.896 E26.40600
G1 X94.039 Y118.896 E26.43070
G1 X95.015 Y119.872 E26.47044
G1 X94.158 Y119.872 E26.49514
G1 X93.182 Y118.896 E26.53488
G1 X92.325 Y118.896 E26.55958
G1 X93.300 Y119.872 E26.59933
G1 X92.443 Y119.872 E26.62402
G1 X91.468 Y118.896 E26.66377
G1 X90.611 Y118.896 E26.68846
G1 X91.586 Y119.872 E26.72821
G1 X90.729 Y119.872 E26.75290
G1 X89.753 Y118.896 E26.79265
G1 X88.896 Y118.896 E26.81735
G1 X89.872 Y119.872 E26.85709
G1 X80.443 Y119.872 F7800.000
G1 X80.161 Y119.590 F1080.000 E26.86858
G1 X80.179 Y118.750 E26.89278
G1 X81.300 Y119.872 E26.93849
G1 X82.158 Y119.872 E26.96319
G1 X80.196 Y117.910 E27.04313
G1 X80.213 Y117.070 E27.06733
G1 X83.015 Y119.872 E27.18150
G1 X83.872 Y119.872 E27.20619
G1 X80.230 Y116.230 E27.35458
G1 X80.285 Y115.428 E27.37773
G1 X84.729 Y119.872 E27.55877
G1 X85.586 Y119.872 E27.58347
G1 X80.404 Y114.690 E27.79460
G1 X80.523 Y113.952 E27.81614
G1 X86.443 Y119.872 E28.05736
G1 X87.300 Y119.872 E28.08205
G1 X80.642 Y113.213 E28.35336
G1 X80.760 Y112.475 E28.37490
G1 X88.158 Y119.872 E28.67629
G1 X89.015 Y119.872 E28.70098
G1 X80.879 Y111.736 E29.03245
G1 X80.998 Y110.998 E29.05400
G1 X88.054 Y118.054 E29.34147
G1 X88.054 Y117.197 E29.36617
G1 X81.125 Y110.268 E29.64845
G1 X81.327 Y109.613 E29.66821
G1 X88.054 Y116.339 E29.94227
G1 X88.054 Y115.482 E29.96696
G1 X81.529 Y108.957 E30.23281
G1 X81.731 Y108.302 E30.25256
G1 X88.054 Y114.625 E30.51019
G1 X88.054 Y113.768 E30.53488
G1 X81.932 Y107.647 E30.78429
G1 X82.134 Y106.991 E30.80405
G1 X88.054 Y112.911 E31.04524
G1 X88.264 Y112.264 E31.06484
G1 X82.336 Y106.336 E31.30636
G1 X82.537 Y105.680 E31.32612
G1 X89.121 Y112.264 E31.59435
G1 X89.978 Y112.264 E31.61905
G1 X82.751 Y105.037 E31.91348
G1 X83.025 Y104.453 E31.93205
G1 X90.835 Y112.264 E32.25028
G1 X91.692 Y112.264 E32.27497
G1 X83.298 Y103.869 E32.61699
G1 X83.571 Y103.285 E32.63556
G1 X92.549 Y112.264 E33.00137
G1 X93.407 Y112.264 E33.02606
G1 X83.844 Y102.702 E33.41566
G1 X84.118 Y102.118 E33.43423
G1 X94.264 Y112.264 E33.84762
G1 X95.121 Y112.264 E33.87231
G1 X84.391 Y101.534 E34.30949
G1 X84.664 Y100.950 E34.32807
G1 X89.609 Y105.895 E34.52956
G1 X89.003 Y104.432 E34.57519
G1 X84.937 Y100.366 E34.74085
G1 X85.258 Y99.829 E34.75886
G1 X88.438 Y103.010 E34.88844
G1 X88.308 Y102.023 E34.91712
G1 X85.596 Y99.310 E35.02764
G1 X85.934 Y98.791 E35.04549
G1 X88.178 Y101.036 E35.13695
G1 X88.048 Y100.048 E35.16564
G1 X86.271 Y98.271 E35.23804
G1 X86.609 Y97.752 E35.25589
G1 X88.137 Y99.280 E35.31813
G1 X88.237 Y98.522 E35.34014
G1 X86.947 Y97.233 E35.39268
G1 X87.285 Y96.714 E35.41053
G1 X88.336 Y97.765 E35.45336
G1 X88.436 Y97.007 E35.47537
G1 X87.623 Y96.194 E35.50851
G1 X87.961 Y95.675 E35.52636
G1 X88.667 Y96.381 E35.55512
G1 X88.918 Y95.775 E35.57403
G1 X88.298 Y95.156 E35.59926
G1 X88.636 Y94.636 E35.61710
G1 X89.169 Y95.169 E35.63880
G1 X95.169 Y89.169 F7800.000
G1 X94.636 Y88.636 F1080.000 E35.66050
G1 X95.156 Y88.298 E35.67834
G1 X95.775 Y88.918 E35.70358
G1 X96.381 Y88.667 E35.72248
G1 X95.675 Y87.961 E35.75124
G1 X96.194 Y87.623 E35.76909
G1 X97.008 Y88.436 E35.80223
G1 X97.765 Y88.336 E35.82424
G1 X96.714 Y87.285 E35.86708
G1 X97.233 Y86.947 E35.88492
G1 X98.522 Y88.237 E35.93746
G1 X99.280 Y88.137 E35.95947
G1 X97.752 Y86.609 E36.02172
G1 X98.271 Y86.271 E36.03956
G1 X100.049 Y88.048 E36.11197
G1 X101.036 Y88.178 E36.14065
G1 X98.791 Y85.934 E36.23211
G1 X99.310 Y85.596 E36.24996
G1 X102.023 Y88.308 E36.36048
G1 X103.010 Y88.438 E36.38917
G1 X99.829 Y85.258 E36.51875
G1 X100.366 Y84.937 E36.53675
G1 X104.432 Y89.003 E36.70242
G1 X105.895 Y89.609 E36.74805
G1 X100.950 Y84.664 E36.94954
G1 X101.534 Y84.391 E36.96812
G1 X112.264 Y95.121 E37.40530
G1 X112.264 Y94.264 E37.42999
G1 X102.118 Y84.118 E37.84338
G1 X102.702 Y83.844 E37.86195
G1 X112.264 Y93.406 E38.25155
G1 X112.264 Y92.549 E38.27624
G1 X103.285 Y83.571 E38.64205
G1 X103.869 Y83.298 E38.66062
G1 X112.264 Y91.692 E39.00263
G1 X112.264 Y90.835 E39.02733
G1 X104.453 Y83.025 E39.34555
G1 X105.037 Y82.751 E39.36412
G1 X112.264 Y89.978 E39.65855
G1 X112.264 Y89.121 E39.68325
G1 X105.680 Y82.537 E39.95148
G1 X106.336 Y82.336 E39.97124
G1 X112.264 Y88.264 E40.21276
G1 X112.911 Y88.054 E40.23236
G1 X106.991 Y82.134 E40.47355
G1 X107.647 Y81.932 E40.49331
G1 X113.768 Y88.054 E40.74272
G1 X114.625 Y88.054 E40.76741
G1 X108.302 Y81.731 E41.02504
G1 X108.957 Y81.529 E41.04479
G1 X115.482 Y88.054 E41.31064
G1 X116.339 Y88.054 E41.33533
G1 X109.613 Y81.327 E41.60940
G1 X110.268 Y81.125 E41.62915
G1 X117.197 Y88.054 E41.91143
G1 X118.054 Y88.054 E41.93613
G1 X110.998 Y80.998 E42.22360
G1 X111.736 Y80.879 E42.24515
G1 X119.872 Y89.015 E42.57662
G1 X119.872 Y88.158 E42.60131
G1 X112.475 Y80.760 E42.90270
G1 X113.213 Y80.642 E42.92424
G1 X119.872 Y87.300 E43.19554
G1 X119.872 Y86.443 E43.22024
G1 X113.952 Y80.523 E43.46145
G1 X114.690 Y80.404 E43.48300
G1 X119.872 Y85.586 E43.69413
G1 X119.872 Y84.729 E43.71882
G1 X115.428 Y80.285 E43.89987
G1 X116.230 Y80.230 E43.92301
G1 X119.872 Y83.872 E44.07140
G1 X119.872 Y83.015 E44.09610
G1 X117.070 Y80.213 E44.21026
G1 X117.910 Y80.196 E44.23447
G1 X119.872 Y82.158 E44.31440
G1 X119.872 Y81.300 E44.33909
G1 X118.750 Y80.179 E44.38480
G1 X119.590 Y80.161 E44.40901
G1 X119.872 Y80.443 E44.42049
G1 X118.896 Y88.896 F7800.000
G1 X119.872 Y89.872 F1080.000 E44.46024
G1 X119.872 Y90.729 E44.48493
G1 X118.896 Y89.753 E44.52468
G1 X118.896 Y90.611 E44.54938
G1 X119.872 Y91.586 E44.58912
G1 X119.872 Y92.443 E44.61382
G1 X118.896 Y91.468 E44.65357
G1 X118.896 Y92.325 E44.67826
G1 X119.872 Y93.300 E44.71801
G1 X119.872 Y94.158 E44.74270
G1 X118.896 Y93.182 E44.78245
G1 X118.896 Y94.039 E44.80714
G1 X119.872 Y95.015 E44.84689
G1 X119.872 Y95.872 E44.87158
G1 X118.896 Y94.896 E44.91133
G1 X118.896 Y95.753 E44.93603
G1 X119.872 Y96.729 E44.97577
G1 X119.872 Y97.586 E45.00047
G1 X118.896 Y96.611 E45.04021
G1 X118.896 Y97.468 E45.06491
G1 X119.872 Y98.443 E45.10466
G1 X119.872 Y99.300 E45.12935
G1 X118.896 Y98.325 E45.16910
G1 X118.896 Y99.182 E45.19379
G1 X119.872 Y100.158 E45.23354
G1 X119.872 Y101.015 E45.25823
G1 X118.896 Y100.039 E45.29798
G1 X118.896 Y100.896 E45.32268
G1 X119.872 Y101.872 E45.36242
G1 X119.872 Y102.729 E45.38712
G1 X118.896 Y101.753 E45.42686
G1 X118.896 Y102.611 E45.45156
G1 X119.872 Y103.586 E45.49131
G1 X119.872 Y104.443 E45.51600
G1 X118.896 Y103.468 E45.55575
G1 X118.896 Y104.325 E45.58044
G1 X119.872 Y105.300 E45.62019
G1 X119.872 Y106.158 E45.64488
G1 X118.896 Y105.182 E45.68463
G1 X118.896 Y106.039 E45.70933
G1 X119.872 Y107.015 E45.74907
G1 X119.872 Y107.872 E45.77377
G1 X118.896 Y106.896 E45.81351
G1 X118.896 Y107.753 E45.83821
G1 X119.872 Y108.729 E45.87796
G1 X119.872 Y109.586 E45.90265
G1 X118.896 Y108.611 E45.94240
G1 X118.896 Y109.468 E45.96709
G1 X119.872 Y110.443 E46.00684
G1 X119.872 Y111.300 E46.03153
G1 X118.896 Y110.325 E46.07128
G1 X118.896 Y111.182 E46.09598
G1 X119.872 Y112.158 E46.13572
G1 X119.872 Y113.015 E46.16042
G1 X118.803 Y111.946 E46.20395
G1 X117.946 Y111.946 E46.22864
G1 X119.872 Y113.872 E46.30709
G1 X119.872 Y114.729 E46.33179
G1 X117.089 Y111.946 E46.44516
G1 X116.232 Y111.946 E46.46986
G1 X119.872 Y115.586 E46.61816
G1 X119.872 Y116.443 E46.64285
G1 X115.375 Y111.946 E46.82607
G1 X114.518 Y111.946 E46.85077
G1 X119.872 Y117.300 E47.06891
G1 X119.872 Y118.158 E47.09361
G1 X113.661 Y111.946 E47.34668
G1 X112.803 Y111.946 E47.37137
G1 X119.872 Y119.015 E47.65936
G1 X119.872 Y119.872 E47.68406
G1 X108.456 Y108.455 E48.14920
G1 X107.971 Y108.828 E48.16681
G1 X111.407 Y112.264 E48.30681
G1 X110.549 Y112.264 F7800.000
G1 X107.486 Y109.200 F1080.000 E48.43164
G1 X107.001 Y109.572 E48.44926
G1 X109.692 Y112.264 E48.55893
G1 X108.835 Y112.264 E48.58362
G1 X106.516 Y109.944 E48.67813
G1 X106.031 Y110.316 E48.69574
G1 X107.978 Y112.264 E48.77509
G1 X107.121 Y112.264 E48.79978
G1 X105.437 Y110.580 E48.86837
G1 X104.831 Y110.831 E48.88727
G1 X106.264 Y112.264 E48.94564
G1 X105.407 Y112.264 E48.97033
G1 X104.225 Y111.082 E49.01846
G1 X103.619 Y111.333 E49.03736
G1 X104.549 Y112.264 E49.07527
G1 X103.692 Y112.264 E49.09996
G1 X103.013 Y111.584 E49.12764
G1 X102.835 Y112.264 E49.14787
G1 X102.407 Y111.835 E49.16532
G1 X97.657 Y112.229 F7800.000
G1 X97.031 Y111.603 F1080.000 E49.19083
G1 X96.835 Y112.264 E49.21069
G1 X95.568 Y110.997 E49.26231
G1 X94.105 Y110.391 E49.30794
G1 X95.978 Y112.264 E49.38426
G1 X112.264 Y111.407 F7800.000
G1 X108.828 Y107.971 F1080.000 E49.52425
G1 X109.200 Y107.486 E49.54187
G1 X112.264 Y110.549 E49.66670
G1 X112.264 Y109.692 E49.69139
G1 X109.572 Y107.001 E49.80106
G1 X109.944 Y106.516 E49.81867
